X:117
T:Will's Way
M:4/4
L:1/8
K:D
FG A2 A4 | BA B2 A4 | DEFG A2B2 | =c2B2 B2A2 |
FG A2 A4 | BA B2 A4 | DEFG F2E2 | D4-D4 :|
d4 AGFA | d4 AGFE | DEFG A2B2 | =c2B2 B2A2 |
d4 AGFA | d4 AGFE | DEFG F2E2 | D4-D4 :|
